X:1
T:Come! Tune Your Heart
T:Come! Tune Your Heart
T:Frederick Arthur Gore-Ouseley (1825-1889)
T:Christian Gellert, trans. by Frances Cox, 1841
T:Public Domain Courtesy of the Cyber Hymnal™
T:Public Domain Courtesy of the Cyber Hymnal™
C:Frederick Arthur Gore-Ouseley (1825-1889)
Z:Public Domain
Z:Courtesy of the Cyber Hymnal™
%%score ( 1 2 ) ( 3 4 )
L:1/8
Q:1/4=110
M:4/4
K:Eb
V:1 treble 
V:2 treble 
V:3 bass 
V:4 bass 
V:1
 [B,E]2 | [EG]2 [EA]2 | [DB]2 [EG]2 | [EA]2 [Ec]2 | [EB]2 [FB]2 | [Ee]2 (dc) | [GB]2 (=AG) | %7
w: 1.~Come!|tune your|heart, to|bear its|part, And|cel- e- *|brate Mes- *|
w: 2.~Ex-|alt His|Name; with|joy pro-|claim, God|loved the *|world, and *|
w: 3.~Your|re- fuge|place in|His free|grace, Trust|in His *|Name, and *|
w: 4.~O|Christ, to|prove for|Thee my|love In|breth- ren *|Thee my *|
w: 5.~Come!|praise the|Lord; in|Heav’n are|stored Rich|gifts for *|those who *|
 [DF]2 [Ec]2 | [DB]2 [Bd]2 | f4 | [Bd]2 B2 | c4 | !fermata!B2 [EB]2 | [EG]2 [DF]2 | E2 [Fc]2 | %15
w: si- ah’s|feast with|prais-|es, with|prais-|es; Let|love in-|spire the|
w: through His|Son for-|gave|us, for-|gave|us; Oh!|what are|we, that,|
w: day by|day re-|pent|you, re-|pent|you; Ye|mock God’s|Word, who|
w: hands shall|clothe and|cher-|ish, and|cher-|ish, To|each sad|heart sweet|
w: here His|Name es-|teem-|èd, es-|teem-|èd; Al-|le- lu-|ia; Al-|
 [FA]2 [=EG]2 | F2 [EG]2 | [EA]2 [EB]2 | [Ec]2 [Ec]2 | [Ad]2 (ec) | [AB]2 [GB]2 | c4 | %22
w: joy- ful|choir, While|to the|God of|love, glad *|hymns it|rais-|
w: Lord, we|see Thy|wond- rous|love, in|Christ who *|died to|save|
w: call Him|Lord, And|fol- low|not the|pat- tern *|He hath|lent|
w: hope im-|part, When|worn with|care, with|sor- row *|nigh to|per-|
w: le- lu-|ia; Re-|joice in|Christ, and|praise Him *|ye re-|deem-|
 [FB]2 [EB]2 | F4 | E4 |] %25
w: es, it|rais-|es.|
w: us, to|save|us!|
w: you, hath|lent|you.|
w: ish, to|per-|ish.|
w: èd, re-|deem-|èd.|
V:2
 x2 | x4 | x4 | x4 | x4 | x2 F2 | x2 C2 | x4 | x4 | (B2 =A2) | x2 B2 | (B2 =A2) | B2 x2 | x4 | %14
 E2 x2 | x4 | F2 x2 | x4 | x4 | x2 A2 | x4 | (G2 FE) | x4 | (E2 D2) | E4 |] %25
V:3
 [E,G,]2 | [D,G,]2 [C,E,]2 | [B,,F,]2 E,2 | [C,A,]2 [A,,A,]2 | [E,G,]2 [D,B,]2 | [C,C]2 (B,A,) | %6
 [E,G,]2 [=E,B,]2 | [F,B,]2 [F,=A,]2 | B,2 [G,B,]2 | [F,C]4 | [B,D]2 [G,=E]2 | [F,F]4 | %12
 !fermata![B,D]2 [G,,B,]2 | [A,,C]2 [B,,A,]2 | [C,G,]2 [A,,C]2 | [B,,_D]2 [C,B,]2 | %16
 [_D,A,]2 [D,B,]2 | [C,A,]2 [B,,G,]2 | [A,,A,]2 A,2 | [F,A,]2 [E,C]2 | [D,F]2 [E,E]2 | (E2 C2) | %22
 [A,,D]2 (EB,) | (B,3 A,) | [E,G,]4 |] %25
V:4
 x2 | x4 | x2 E,2 | x4 | x4 | x2 D,2 | x4 | x4 | B,2 x2 | x4 | x4 | x4 | x4 | x4 | x4 | x4 | x4 | %17
 x4 | x2 (A,G,) | x4 | x4 | A,,4 | x2 G,,2 | B,,4 | x4 |] %25

